X:64
T:HARTHGH1- Failte na misoq
S:from Oswald's Caledonian Pocket Companion, bk 1, c 1743
Q:1/4=120
L:1/4
M:3/4
K:D
A|d3/2 f/~e3/4d/4|~B2d|A3/2 d/B/A/|~F3/2 E/D|(EF)d|\
{B/}A3/2 G/F/E/|Dd(d/e/)|d2(d3/4e/4)|~f3/4e/4 f/g/f/e/|d3/2 c/B|\
A3/2 d/B/A/|~F3/2 E/ (F/4E/4D/2)|(EF)d|A3/4B/4F3/4A/4D3/4F/4|\
Dd(d/e/)|d2:|A|d/e/f(f/4g/4)a/|~f3/2 e/ (f/4e/4)d/|\
(BA)B|b3/2 a/f|(a/b/a/)g/f/e/|(f/g/)(f/e/)(d/c/)|\
Be(e/4f/4g/)|~e3/2 d/B|(d/c/d/)e/f/g/|{f/g/}a3/2 b/a|\
(b/a/)(g/f/)(e/d/)|d3/2 f/e/d/|~B3/2 A/B/d/|A(g/f/)(e/d/)|\
B A/B/d/F/|~E2D|]

